X:323
T:Tommy Peoples' 2
R:Reel
O:Ireland
D:Altan: Island Angel
D:Private tape - Milltown Malbay 1985 -Dermot Diamond, Belfast fiddle
S:Private tape - Milltown Malbay 1985 -Dermot Diamond, Belfast fiddle
S:bernie~1.ab
Z:Transcription:Bernie Stocks?,slight arr.,  chords:Mike Long
M:C|
L:1/8
K:D
{d}"Bm"B2Bc dBAd|"Bm"BFBc "(G)"dfed|"Bm"B2~d2 dcdB|"A"ABde "G"fe{f}ed|\
"Bm"~B3c dBAd|
"Bm"BFBc "(D)"~d2ed|"G"BGBd {e}dcdB|"A"ABde fd~d2|]\
"D"d3f bfaf|"D"dfaf "G"~g2fg|
"D"afge "G"d3B|"A"ABde "D"fd~d2|\
"D"defa bfaf|"D"d3f "G"gefg|"D"afge "A"~f2ed|"G"BFBc dfed|]
